X:152
T:Betty Blue
M:C|
L:1/8
B:Thompson's Compleat Collection of 200 Favourite Country Dances, vol. 1 (London, 1757)
Z:Transcribed and edited by Flynn Titford-Mock, 2007
Z:abc's:AK/Fiddler's Companion
K:D
a3 b a2g2|f3e d2f2|a3b agfe|d4 d4|a3 b a2g2|f3e d2f2|
a3b a2f2|d4 d4::e3 f e2d2|c3 B A2c2|e3 f e2c2|A4 A4|e3 f e2d2|
c3B A2c2|e3 f e2c2|A6 a2|a6 a2|A6 a2|A2 a2 A2 a2|A4 A4|f3 g f2 e2|
d3 c d2 e2|f3 g f2 e2|d4 d4|f3 g f2 e2|d3 c d2 g2|a2 f2 g2 e2|d4 d4:|

